lib/brands/icons/flutter.svg

<svg xmlns="http://www.w3.org/2000/svg" fill="none" aria-hidden="true" viewBox="0 0 48 48"><g id="flutter-Icon"><g id="Group"><path id="Vector" fill="#47C5FB" d="M27.4144 6L9.4873 23.9271L15.0361 29.4759L38.5122 6H27.4144Z"/><path id="Vector_2" fill="#47C5FB" d="M27.2891 22.5321L17.6904 32.1308L23.2601 37.7837L28.7986 32.2451L38.5118 22.5321H27.2891Z"/><path id="Vector_3" fill="#00569E" d="M23.2607 37.7837L27.4771 42H38.5123L28.7992 32.2451L23.2607 37.7837Z"/><path id="Vector_4" fill="#00B5F8" d="M17.6279 32.1932L23.1768 26.6443L28.7985 32.2452L23.26 37.7837L17.6279 32.1932Z"/><path id="Vector_5" fill="url(#paint0_linear_94_17467)" fill-opacity="0.8" d="M23.2607 37.7837L27.8726 36.2534L28.3307 32.7137L23.2607 37.7837Z"/></g></g><defs><linearGradient id="paint0_linear_94_17467" x1="23.4611" x2="27.1087" y1="34.0822" y2="35.3966" gradientUnits="userSpaceOnUse"><stop/><stop offset="1" stop-opacity="0"/></linearGradient></defs></svg>

<svg xmlns="http://www.w3.org/2000/svg" fill="none" aria-hidden="true" viewBox="0 0 48 48"><path fill="#47C5FB" d="M27.414 6 9.487 23.927l5.55 5.549L38.511 6H27.414Zm-.124 16.532-9.6 9.599 5.57 5.653 5.539-5.539 9.713-9.713H27.289Z"/><path fill="#00569E" d="M23.26 37.784 27.478 42h11.035L28.8 32.245l-5.538 5.539Z"/><path fill="#00B5F8" d="m17.628 32.193 5.549-5.549 5.622 5.601-5.539 5.539-5.632-5.59Z"/><path fill="url(#a)" fill-opacity=".8" d="m23.26 37.784 4.613-1.53.458-3.54-5.07 5.07Z"/><defs><linearGradient id="a" x1="23.461" x2="27.109" y1="34.082" y2="35.397" gradientUnits="userSpaceOnUse"><stop/><stop offset="1" stop-opacity="0"/></linearGradient></defs></svg>
